src/apps/scalable/Zoom.svg

<svg width="64" height="64" version="1.1" xmlns="http://www.w3.org/2000/svg">
 <defs>
  <linearGradient id="d" x1="399.99" x2="399.99" y1="545.14" y2="518.14" gradientTransform="matrix(2.1429,0,0,2.1429,-826.36,-1107.5)" gradientUnits="userSpaceOnUse">
   <stop stop-color="#6abaf6" offset="0"/>
   <stop stop-color="#2770dd" offset="1"/>
  </linearGradient>
  <linearGradient id="c" x1="399.57" x2="399.57" y1="545.8" y2="517.8" gradientTransform="matrix(2.1429,0,0,2.1429,-826.36,-1107.5)" gradientUnits="userSpaceOnUse">
   <stop stop-color="#3889e9" offset="0"/>
   <stop stop-color="#5ea5fb" offset="1"/>
  </linearGradient>
  <filter id="b" x="-.036" y="-.036" width="1.072" height="1.072" color-interpolation-filters="sRGB">
   <feGaussianBlur stdDeviation="0.41999874"/>
  </filter>
  <filter id="filter993" x="-.084859" y="-.1485" width="1.1697" height="1.297" color-interpolation-filters="sRGB">
   <feGaussianBlur stdDeviation="1.237486"/>
  </filter>
 </defs>
 <circle transform="matrix(2.1429 0 0 2.1429 -826.37 -1107.5)" cx="400.57" cy="531.8" r="14" filter="url(#b)" opacity=".25" stroke-width=".73333"/>
 <g transform="matrix(1 0 0 1 -.019974 -.043891)" stroke-width="1.5715">
  <circle cx="32.02" cy="32.044" r="30.001" fill="url(#d)"/>
  <circle cx="32.02" cy="32.044" r="30.001" fill-opacity="0"/>
  <circle cx="32.02" cy="32.044" r="0" fill="url(#c)"/>
 </g>
 <path d="m17.166 23c-1.2003 0-2.166 0.95547-2.166 2.1426v12.143c0 3.1656 2.5765 5.7148 5.7773 5.7148h18.057c1.2003 0 2.166-0.95547 2.166-2.1426v-12.143c0-3.1656-2.5765-5.7148-5.7773-5.7148h-14.445zm31.564 0.0039c-0.42486-0.03143-0.90846 0.17568-1.3691 0.63477-1.6201 1.6144-3.5196 2.9767-4.8477 4.9062-0.54689 0.7946-0.50937 1.8466-0.51367 2.8359-0.0024 0.54283 0.0028 1.0835 0 1.6191 0.0028 0.53569-0.0024 1.0763 0 1.6191 0.0043 0.98936-0.03322 2.0413 0.51367 2.8359 1.328 1.9296 3.2276 3.2918 4.8477 4.9062 0.46068 0.45908 0.94428 0.66619 1.3691 0.63477 0.70809-0.05239 1.252-0.77105 1.252-2.1035 0-2.6086 0.0382-5.2482 0-7.8926 0.0382-2.6443 0-5.284 0-7.8926 0-1.3325-0.54386-2.0511-1.252-2.1035z" filter="url(#filter993)" opacity=".15"/>
 <path d="m17.166 22c-1.2003 0-2.166 0.95547-2.166 2.1426v12.143c0 3.1656 2.5765 5.7148 5.7773 5.7148h18.057c1.2003 0 2.166-0.95547 2.166-2.1426v-12.143c0-3.1656-2.5765-5.7148-5.7773-5.7148h-14.445zm31.564 0.0039c-0.42486-0.03143-0.90846 0.17568-1.3691 0.63477-1.6201 1.6144-3.5196 2.9767-4.8477 4.9062-0.54689 0.7946-0.50937 1.8466-0.51367 2.8359-0.0024 0.54283 0.0028 1.0835 0 1.6191 0.0028 0.53569-0.0024 1.0763 0 1.6191 0.0043 0.98936-0.03322 2.0413 0.51367 2.8359 1.328 1.9296 3.2276 3.2918 4.8477 4.9062 0.46068 0.45908 0.94428 0.66619 1.3691 0.63477 0.70809-0.05239 1.252-0.77105 1.252-2.1035 0-2.6086 0.0382-5.2482 0-7.8926 0.0382-2.6443 0-5.284 0-7.8926 0-1.3325-0.54386-2.0511-1.252-2.1035z" fill="#fff"/>
</svg>

<svg width="64" height="64" xmlns="http://www.w3.org/2000/svg"><defs><linearGradient id="b" x1="399.99" x2="399.99" y1="545.14" y2="518.14" gradientTransform="translate(-826.36 -1107.5) scale(2.1429)" gradientUnits="userSpaceOnUse"><stop stop-color="#6abaf6" offset="0"/><stop stop-color="#2770dd" offset="1"/></linearGradient><linearGradient id="c" x1="399.57" x2="399.57" y1="545.8" y2="517.8" gradientTransform="translate(-826.36 -1107.5) scale(2.1429)" gradientUnits="userSpaceOnUse"><stop stop-color="#3889e9" offset="0"/><stop stop-color="#5ea5fb" offset="1"/></linearGradient><filter id="a" x="-.036" y="-.036" width="1.072" height="1.072" color-interpolation-filters="sRGB"><feGaussianBlur stdDeviation=".42"/></filter><filter id="d" x="-.085" y="-.148" width="1.17" height="1.297" color-interpolation-filters="sRGB"><feGaussianBlur stdDeviation="1.237"/></filter></defs><circle transform="translate(-826.37 -1107.5) scale(2.1429)" cx="400.57" cy="531.8" r="14" filter="url(#a)" opacity=".25"/><g transform="translate(-.02 -.044)" stroke-width="1.571"><circle cx="32.02" cy="32.044" r="30.001" fill="url(#b)"/><circle cx="32.02" cy="32.044" r="30.001" fill="none"/></g><path d="M17.166 23A2.15 2.15 0 0 0 15 25.143v12.143C15 40.45 17.576 43 20.777 43h18.057A2.15 2.15 0 0 0 41 40.858V28.715C41 25.549 38.424 23 35.223 23H20.778zm31.564.004c-.425-.032-.908.176-1.37.635-1.62 1.614-3.519 2.976-4.847 4.906-.547.794-.51 1.846-.513 2.836-.003.543.002 1.083 0 1.619.002.536-.003 1.076 0 1.619.004.99-.034 2.041.513 2.836 1.328 1.93 3.228 3.292 4.848 4.906.46.46.944.666 1.369.635.708-.053 1.252-.771 1.252-2.104 0-2.608.038-5.248 0-7.892.038-2.645 0-5.284 0-7.893 0-1.332-.544-2.051-1.252-2.103z" filter="url(#d)" opacity=".15"/><path d="M17.166 22A2.15 2.15 0 0 0 15 24.143v12.143C15 39.45 17.576 42 20.777 42h18.057A2.15 2.15 0 0 0 41 39.858V27.715C41 24.549 38.424 22 35.223 22H20.778zm31.564.004c-.425-.032-.908.176-1.37.635-1.62 1.614-3.519 2.976-4.847 4.906-.547.794-.51 1.846-.513 2.836-.003.543.002 1.083 0 1.619.002.536-.003 1.076 0 1.619.004.99-.034 2.041.513 2.836 1.328 1.93 3.228 3.292 4.848 4.906.46.46.944.666 1.369.635.708-.053 1.252-.771 1.252-2.104 0-2.608.038-5.248 0-7.892.038-2.645 0-5.284 0-7.893 0-1.332-.544-2.051-1.252-2.103z" fill="#fff"/></svg>
